.icons/Gruvbox-Plus-Light/apps/16/terminus.svg

<svg width="16" height="16" version="1.1" xmlns="http://www.w3.org/2000/svg">
  <defs>
    <style id="current-color-scheme" type="text/css">.ColorScheme-Text { color:#282828; } .ColorScheme-Highlight { color:#458588; }</style>
  </defs>
  <path class="ColorScheme-Text" d="m0.889 1.714v2.73l6.222 3.675-6.222 3.437v2.73l2.847 1.714 11.38-6.308v-3.271l-11.58-6.421-2.643 1.714z" fill="currentColor"/>
</svg>

<svg width="16" height="16" version="1.1" xmlns="http://www.w3.org/2000/svg">
  <defs>
    <style type="text/css" id="current-color-scheme">.ColorScheme-Text { color:#282828; } .ColorScheme-Highlight { color:#458588; }</style>
  </defs>
 <path class="ColorScheme-Text" fill="currentColor" d="M 0.889 1.714 L 0.889 4.444 L 7.111 8.119 L 0.889 11.556 L 0.889 14.286 L 3.736 16 L 15.111 9.692 L 15.111 6.421 L 3.532 0 L 0.889 1.714 Z"/>
</svg>
